X:763
T:Reel 763
M:4/4
K:Emin
L:1/8
BA|GEEF G2EF|G2FG AcBA||GEEF G2ef|g2fe dBBA:||2GEGF GFBA|GEFD F2E2|BABc d2ed|Bcdf e2ec|Bcdf e2ef|gfed efga|baga bgeg|agfd edBA|B2BA B2ef|gefd edBA|
